src/assets/icon/krcc-main-second-card-icon.svg

<svg version="1.1" xmlns="http://www.w3.org/2000/svg" xmlns:xlink="http://www.w3.org/1999/xlink" width="60" height="60" viewBox="0,0,256,256"><defs><clipPath id="clip-1"><rect x="0" y="0" width="60" height="60" rx="12" ry="0" id="clip0_170_10886" fill="none" stroke="none" stroke-width="1" stroke-linecap="butt" stroke-linejoin="miter"></rect></clipPath><clipPath id="clip-2"><rect x="9" y="11" width="40" height="40" id="clip1_170_10886" fill="none" stroke="none" stroke-width="1" stroke-linecap="butt" stroke-linejoin="miter"></rect></clipPath><radialGradient cx="30" cy="28" r="20.5" gradientUnits="userSpaceOnUse" id="color-1"><stop offset="0.50697" stop-color="#4c66ff"></stop><stop offset="1" stop-color="#31d0ff"></stop></radialGradient><linearGradient x1="17.5" y1="15.2339" x2="41" y2="40.2339" gradientUnits="userSpaceOnUse" id="color-2"><stop offset="0" stop-color="#ffffff"></stop><stop offset="0.62981" stop-color="#ffffff" stop-opacity="0"></stop></linearGradient><linearGradient x1="33.5" y1="33" x2="41.5" y2="45" gradientUnits="userSpaceOnUse" id="color-3"><stop offset="0" stop-color="#ffffff"></stop><stop offset="1" stop-color="#ffffff" stop-opacity="0"></stop></linearGradient><linearGradient x1="37" y1="32" x2="37" y2="46" gradientUnits="userSpaceOnUse" id="color-4"><stop offset="0" stop-color="#ffffff"></stop><stop offset="0.53278" stop-color="#ffffff" stop-opacity="0"></stop></linearGradient><linearGradient x1="38" y1="31" x2="52" y2="58" gradientUnits="userSpaceOnUse" id="color-5"><stop offset="0" stop-color="#21c2ea"></stop><stop offset="0.70699" stop-color="#2a81ff"></stop></linearGradient><linearGradient x1="38" y1="31" x2="52" y2="58" gradientUnits="userSpaceOnUse" id="color-6"><stop offset="0" stop-color="#21c2ea"></stop><stop offset="1" stop-color="#2a81ff"></stop></linearGradient><linearGradient x1="45.0943" y1="46.7157" x2="50.2798" y2="52.5131" gradientUnits="userSpaceOnUse" id="color-7"><stop offset="0" stop-color="#4deeff"></stop><stop offset="1" stop-color="#3c3aff"></stop></linearGradient></defs><g fill="none" fill-rule="nonzero" stroke="none" stroke-width="none" stroke-linecap="none" stroke-linejoin="none" stroke-miterlimit="10" stroke-dasharray="" stroke-dashoffset="0" font-family="none" font-weight="none" font-size="none" text-anchor="none" style="mix-blend-mode: normal"><g transform="scale(4.26667,4.26667)"><g clip-path="url(#clip-1)"><rect x="0" y="0" width="60" height="60" rx="12" ry="0" fill="#e5f7fc" stroke="none" stroke-width="1" stroke-linecap="butt" stroke-linejoin="miter"></rect><g clip-path="url(#clip-2)"><circle cx="29" cy="28" r="16" fill="url(#color-1)" stroke="none" stroke-width="1" stroke-linecap="butt" stroke-linejoin="miter"></circle><circle cx="29" cy="28" r="15.5" fill="none" stroke-opacity="0.25" stroke="url(#color-2)" stroke-width="1" stroke-linecap="butt" stroke-linejoin="miter"></circle><g fill="none" stroke="#87d1ff" stroke-width="1.5" stroke-linecap="butt" stroke-linejoin="miter"><path d="M11,23.25h36" opacity="0.8"></path><path d="M11,34.25h36" opacity="0.8"></path><path d="M26.5,11l-0.8177,1.47c-5.6657,10.1846 -5.3525,22.6429 0.8177,32.53v0" opacity="0.8"></path><path d="M32,11l0.718,1.6134c4.6109,10.3607 4.3475,22.2404 -0.718,32.3866v0" opacity="0.8"></path></g><circle cx="37" cy="39" r="7" fill-opacity="0.65" fill="url(#color-3)" stroke="none" stroke-width="1" stroke-linecap="butt" stroke-linejoin="miter"></circle><circle cx="37" cy="39" r="6.75" fill="none" stroke-opacity="0.5" stroke="url(#color-4)" stroke-width="0.5" stroke-linecap="butt" stroke-linejoin="miter"></circle><path d="M47,48.9998l-4.3,-4.3M44.9998,38.9999c0,4.4182 -3.5817,7.9999 -7.9999,7.9999c-4.4182,0 -7.9999,-3.5817 -7.9999,-7.9999c0,-4.4182 3.5817,-7.9999 7.9999,-7.9999c4.4182,0 7.9999,3.5817 7.9999,7.9999z" fill="none" stroke="url(#color-5)" stroke-width="2.2" stroke-linecap="round" stroke-linejoin="round"></path><g fill="none" stroke="url(#color-6)" stroke-width="2.2" stroke-linecap="round" stroke-linejoin="round"><g><path d="M47,48.9998l-4.3,-4.3M44.9998,38.9999c0,4.4182 -3.5817,7.9999 -7.9999,7.9999c-4.4182,0 -7.9999,-3.5817 -7.9999,-7.9999c0,-4.4182 3.5817,-7.9999 7.9999,-7.9999c4.4182,0 7.9999,3.5817 7.9999,7.9999z"></path></g></g></g><path d="M49.465,49.0504l0.1125,0.1392c0.5216,0.7175 0.5236,1.5576 -0.1622,2.2434c-0.6337,0.6337 -1.7322,0.6523 -2.3873,0.0543l-0.1259,-0.1273l-2.0883,-2.0872c-0.3907,-0.3905 -0.3908,-1.0238 -0.0001,-1.4144l1.0706,-1.0706c0.3966,-0.3965 1.0416,-0.3894 1.4294,0.0156z" fill="url(#color-7)" stroke="none" stroke-width="1" stroke-linecap="butt" stroke-linejoin="miter"></path></g></g></g></svg>

<svg width="60" height="60" viewBox="0 0 60 60" fill="none" xmlns="http://www.w3.org/2000/svg">
<g clip-path="url(#clip0_170_10886)">
<rect width="60" height="60" rx="12" fill="#FCEFE5"/>
<g clip-path="url(#clip1_170_10886)">
<circle cx="29" cy="28" r="16" fill="url(#paint0_radial_170_10886)"/>
<circle cx="29" cy="28" r="15.5" stroke="url(#paint1_linear_170_10886)" stroke-opacity="0.25"/>
<mask id="mask0_170_10886" style="mask-type:alpha" maskUnits="userSpaceOnUse" x="13" y="12" width="32" height="32">
<circle cx="29" cy="28" r="16" fill="url(#paint2_linear_170_10886)"/>
</mask>
<g mask="url(#mask0_170_10886)">
<line opacity="0.8" x1="11" y1="23.25" x2="47" y2="23.25" stroke="#FFCC87" stroke-width="1.5"/>
<line opacity="0.8" x1="11" y1="34.25" x2="47" y2="34.25" stroke="#FFCC87" stroke-width="1.5"/>
<path opacity="0.8" d="M26.5 11L25.6823 12.47C20.0166 22.6546 20.3298 35.1129 26.5 45V45" stroke="#FFCC87" stroke-width="1.5"/>
<path opacity="0.8" d="M32 11L32.718 12.6134C37.3289 22.9741 37.0655 34.8538 32 45V45" stroke="#FFCC87" stroke-width="1.5"/>
</g>
<circle cx="37" cy="39" r="7" fill="url(#paint3_linear_170_10886)" fill-opacity="0.65"/>
<circle cx="37" cy="39" r="6.75" stroke="url(#paint4_linear_170_10886)" stroke-opacity="0.5" stroke-width="0.5"/>
<path d="M47 48.9998L42.7 44.6998M44.9998 38.9999C44.9998 43.4181 41.4181 46.9998 36.9999 46.9998C32.5817 46.9998 29 43.4181 29 38.9999C29 34.5817 32.5817 31 36.9999 31C41.4181 31 44.9998 34.5817 44.9998 38.9999Z" stroke="url(#paint5_linear_170_10886)" stroke-width="2.2" stroke-linecap="round" stroke-linejoin="round"/>
<mask id="mask1_170_10886" style="mask-type:alpha" maskUnits="userSpaceOnUse" x="13" y="12" width="32" height="32">
<circle cx="29" cy="28" r="16" fill="url(#paint6_radial_170_10886)"/>
</mask>
<g mask="url(#mask1_170_10886)">
<g filter="url(#filter0_d_170_10886)">
<path d="M47 48.9998L42.7 44.6998M44.9998 38.9999C44.9998 43.4181 41.4181 46.9998 36.9999 46.9998C32.5817 46.9998 29 43.4181 29 38.9999C29 34.5817 32.5817 31 36.9999 31C41.4181 31 44.9998 34.5817 44.9998 38.9999Z" stroke="url(#paint7_linear_170_10886)" stroke-width="2.2" stroke-linecap="round" stroke-linejoin="round" shape-rendering="crispEdges"/>
</g>
</g>
</g>
<path d="M49.465 49.0504L49.5775 49.1896C50.0991 49.9071 50.1011 50.7472 49.4153 51.433C48.7816 52.0667 47.6831 52.0853 47.028 51.4873L46.9021 51.36L44.8138 49.2728C44.4231 48.8823 44.423 48.249 44.8137 47.8584L45.8843 46.7878C46.2809 46.3913 46.9259 46.3984 47.3137 46.8034L49.465 49.0504Z" fill="url(#paint8_linear_170_10886)"/>
</g>
<defs>
<filter id="filter0_d_170_10886" x="23.9" y="25.9" width="26.2" height="26.1998" filterUnits="userSpaceOnUse" color-interpolation-filters="sRGB">
<feFlood flood-opacity="0" result="BackgroundImageFix"/>
<feColorMatrix in="SourceAlpha" type="matrix" values="0 0 0 0 0 0 0 0 0 0 0 0 0 0 0 0 0 0 127 0" result="hardAlpha"/>
<feOffset dx="-1" dy="-1"/>
<feGaussianBlur stdDeviation="1.5"/>
<feComposite in2="hardAlpha" operator="out"/>
<feColorMatrix type="matrix" values="0 0 0 0 0.923452 0 0 0 0 0.373547 0 0 0 0 0.0136832 0 0 0 0.65 0"/>
<feBlend mode="darken" in2="BackgroundImageFix" result="effect1_dropShadow_170_10886"/>
<feBlend mode="normal" in="SourceGraphic" in2="effect1_dropShadow_170_10886" result="shape"/>
</filter>
<radialGradient id="paint0_radial_170_10886" cx="0" cy="0" r="1" gradientUnits="userSpaceOnUse" gradientTransform="translate(30 28) rotate(90) scale(20.5)">
<stop offset="0.506975" stop-color="#FFB34C"/>
<stop offset="1" stop-color="#FF8731"/>
</radialGradient>
<linearGradient id="paint1_linear_170_10886" x1="17.5" y1="15.2339" x2="41" y2="40.2339" gradientUnits="userSpaceOnUse">
<stop stop-color="white"/>
<stop offset="0.629808" stop-color="white" stop-opacity="0"/>
</linearGradient>
<linearGradient id="paint2_linear_170_10886" x1="29" y1="12" x2="29" y2="44" gradientUnits="userSpaceOnUse">
<stop stop-color="#FF8731"/>
<stop offset="1" stop-color="#FFB34C"/>
</linearGradient>
<linearGradient id="paint3_linear_170_10886" x1="33.5" y1="33" x2="41.5" y2="45" gradientUnits="userSpaceOnUse">
<stop stop-color="white"/>
<stop offset="1" stop-color="white" stop-opacity="0"/>
</linearGradient>
<linearGradient id="paint4_linear_170_10886" x1="37" y1="32" x2="37" y2="46" gradientUnits="userSpaceOnUse">
<stop stop-color="white"/>
<stop offset="0.532784" stop-color="white" stop-opacity="0"/>
</linearGradient>
<linearGradient id="paint5_linear_170_10886" x1="38" y1="31" x2="52" y2="58" gradientUnits="userSpaceOnUse">
<stop stop-color="#EA6521"/>
<stop offset="0.70699" stop-color="#FF8B2A"/>
</linearGradient>
<radialGradient id="paint6_radial_170_10886" cx="0" cy="0" r="1" gradientUnits="userSpaceOnUse" gradientTransform="translate(30 28) rotate(90) scale(20.5)">
<stop offset="0.317308" stop-color="#FFB34C"/>
<stop offset="1" stop-color="#FF8731"/>
</radialGradient>
<linearGradient id="paint7_linear_170_10886" x1="38" y1="31" x2="52" y2="58" gradientUnits="userSpaceOnUse">
<stop stop-color="#EA6521"/>
<stop offset="1" stop-color="#FF8B2A"/>
</linearGradient>
<linearGradient id="paint8_linear_170_10886" x1="45.0943" y1="46.7157" x2="50.2798" y2="52.5131" gradientUnits="userSpaceOnUse">
<stop stop-color="#FFB44D"/>
<stop offset="1" stop-color="#FF963A"/>
</linearGradient>
<clipPath id="clip0_170_10886">
<rect width="60" height="60" rx="12" fill="white"/>
</clipPath>
<clipPath id="clip1_170_10886">
<rect width="40" height="40" fill="white" transform="translate(9 11)"/>
</clipPath>
</defs>
</svg>
